X:1
T:Star Wars, THE FORCE AWAKENS,  Full soundtrack for piano
T:Star Wars,THE FORCE AWAKENS,Full soundtrack for piano
T:all credit to john williams 
T:Robert Russick
C:Robert Russick
%%score { ( 1 3 ) | ( 2 4 ) }
L:1/8
Q:1/4=110
M:4/4
K:Bb
V:1 treble nm="Piano" snm="Pno."
V:3 treble 
V:2 bass 
V:4 bass 
V:1
"^\n" [Bdfb]3 B/B/ B2 (3BBB | (3:2:2B2 B (3BFe (3feB (3BFe | %2
 (3[FBf]eB (3[EB]Ee (3:2:4fB/B/B (3FFF | B4 f4 | (3edc b4 [df]2 | (3edc b4 [df]2 | %6
 (3[_Ace][G=Bd][Ace] [F=Ac]4 (3FFF | B4 f4 | e2 b4 f2 | e2 b4 f2 | %10
 (3[_Ace][G=Bd][Ace] [F=Ac]4 F>F | [B,EG]3 G [GBe]d[EGc]B | (3[EGB]cd (3:2:2[EGc]2 G [CFA]2 F>F | %13
 [B,EG]3 G [GBe]d[EGc]B | f2 c4 z F | [EG]3 G edcB | (3[EB]cd (3:2:2[Fc]2 G [CFA]2 [Ff]>f | %17
 (3:2:2[_gb]2 [f_a] (3:2:2[eg]2 [_df] (3:2:2[ce]2 [Bd] (3:2:2[_Ac]2 [_GB] | f8 | %19
 [B,EG]3 [FB] [GBe]2 (3FFF | [DFB]4 [FBdf]4 | (3edc [Be_ab]4 [Bdf]2 | (3edc [Be_ab]4 [Bdf]2 | %23
 (3ede c4 (3[CFB][CFB][CFB] | [DFB]4 [FBdf]4 | (3[GBe][GBd][GBc] [Be]2 [Bd]2 [FBd]2 | %26
 _A2 [Ae]2 [Bd]2 [FBd]2 | (3[ce][=Bd][eg] [fa]6 | [fa]8 | %29
 B,(3G,/B,/G,/ B,(3B,/E/B,/ E(3G,/B,/G,/ B,(3B,/_A/B,/ | %30
 _c(3B,/E/B,/ E(3E/[Ac]/E/ [Ac](3d/c/B/ (6:4:6e/d/c/f/e/d/ | %31
 (6:4:6g/f/e/_a/g/f/ (6:4:6b/a/g/c'/b/a/ (6:4:6b/a/g/c'/b/a/ (6:4:6d'/c'/b/e'/d'/c'/ | %32
 [^gc'=e']7 [gc'e'] | [ac'=e']7 [ac'e'] | [^gc'=e']8 |[M:3/4][Q:1/4=115] _ag ag ag | c=e _ag ag | %37
 _ag a=e ag | c=e _a g3- | g6- | g2 [=e=e']4- | [ee']6 |[M:4/4] C=E_AG CE !fermata!A2 | %43
 G,4- G,=E,_A,G, | (3C=EG _A2- AC =B,2- |[M:3/4] B,4 z2 |[M:4/4][Q:1/4=100] _D8 | C8 | E8 | =E8 | %50
[M:3/8] E3 |[M:6/8] _d6 | [FBde]6 | =e6 | b3- b2 c' | %55
[K:C] (3[^ce^g^c']/c/[eg]/(3[eg]/c/[eg]/[ceg] z2 ^G | A>E-E _E C2 | %57
[Q:3/8=80] (3[^ce^g]/c/[eg]/(3[eg]/c/[eg]/(3[eg]/c/[eg]/ (3[fa]/d/[fa]/(3[eg]/c/[eg]/[=c_e=g] | %58
 !arpeggio![ceg_a]2 !arpeggio![cega]- [cega] !arpeggio![cega]2 | %59
 !arpeggio![_G_Bc_ef]3 !arpeggio![c=eg_a]2 !arpeggio![cega]- | !fermata![cega]6 |] %61
[K:C][M:4/4]"^The Scavenger." [Ace]2 [ABd]2 [Ace]3 [Ac] | [ABd]2 [AB]2 [Ace]4 | %63
 [Ace]2 [ABd]2 [Ace]3 [Ac] | [ABd]2 [AB]2 [Ace]4 | Ac/A/ A2 Ac/A/ EG/E/ | Ac/A/ A6 |[M:2/4] z4 | %68
[M:4/4] Ac/A/ A2 Ac/A/ EG/E/ | Ac/A/ A4 C2 | D4 B,4 | E6 A2 | d4 B4 | [Ece]4 [DBd]4 | %74
 Ac/A/ A2 Ac/A/ EG/E/ | Ac/A/ A2 Ac/A/ EG/E/ | A,C/A,/ A,2 A,D/A,/ A,2 | A,E/A,/ A,2 A,F/A,/ A,2 | %78
[K:bass] A,2 C2 E,3 A, | [A,B,C]8 | A,3 D/C/ [A,B,]2 [A,C]2 | [^F,A,]8 | %82
 [C,A,]2 [E,B,C]2 [C,A,]3 [A,CE] | [A,D^F]2 [^F,A,D]4[K:treble] (7:4:7A/B/c/d/e/f/g/ | a4- abc'a | %85
 [efac']4 [cegb]3 c'/b/ | [fa]4- [fa]bc'a | [cfac']4 [dgbd']4 | e'8 | Ac/A/ A6 | %90
 [Ace]2 [ABd]2 [Ace]3 [Ac] | [ABd]2 [AB]2 [Ace]4 | Ac/A/ A2 Ac/A/ EG/E/ | Ac/A/ A2 Ac/A/ EG/E/ | %94
 Ac/A/ A6 | Ac/A/ A6 | Ac/A/ A6- |[Q:1/4=50] A8 | z8 | E6 A2 | e8- | e8 | e8- | e8 | z8 | z8 | %106
 d2 ^f2 ^F2 B2 | e2 ^f6 |[M:9/8] d2 (3ded ^c3 dB- | B3 z2 B2- B2 | d2 B2 ^f2 ^g2 e- | e4- e b4- | %112
 bad g [Ae]4- [Ae]- | [Ae]3 g4- g^f | ^Fd B4 E3- | E !fermata!B8 |] %116
[K:F][M:6/8][Q:1/4=60]"^\n\n""^Rey meets BB-8" Ta6- | a6- | a3- a3 |[M:2/4] a2 e2 | %120
[M:6/8] !///![ABcd]6 |[M:5/8] !///![Bcd]2 !///![ABcd]3 | [Ac]3 AA |[M:4/4] Gced c'2 e2 | %124
[M:7/8] A4 z AA |[M:9/8] Gce d c'3 ec |[M:7/8] =B4 z GG |[M:9/8] Gce d c'3 ec |[M:4/4] =b8 | %129
[Q:1/4=80] D6 A,2 | =B,4 D4 | [B,F]2 B,2 z2 [ceg]2- |[M:3/4] [ceg]6 |[M:2/4] [Gceg]4 | %134
[M:4/4] B,2 _E4 B,2- | B,2 F,4 B,2 | D2 G4 D2- | D2 G,4 D2 | [A,DF]2 [B,B]4 F2- | F2 A4 B2 | %140
 [_D_GB]2 [CGBc]4 [DGB_d]2- | [DGBd]2 [C_GBc]4 [_DGB_d]2 | [A-d]8 | A8 | %144
 z2 [df][df] [^ce]/[df]/ [eg]3- | [eg]3[K:bass] (3D,/E,/D,/ ^C,4 |[K:treble] z8 | z4 [^Gce^g]4- | %148
 [Gceg]4 !fermata![^G^g]4 |] z8 | z8 | z8 | z8 | z8 | z8 | z8 |] %156
V:2
 [B,,,A,,]3 B,/B,/ B,2 (3B,B,B, | (3A,F,E (3FEB, (3B,F,E (3[_A,B,F][A,B,F][A,B,] | %2
 (3E,B,,F, [_A,B,]4 (3F,,F,,F,, | z3/2 [B,,B,]/ [B,,B,]2 z3/2 [B,,B,]/ [B,,B,]F,, | %4
 (3:2:2z2 F,, z F,, (3F,,F,,F,, (3B,,B,,B,, | (3:2:2z2 F,, z F,, (3F,,F,,F,, (3B,,B,,B,, | %6
 _A,,2 F,,2 (3[F,,F,][F,,F,][F,,F,] [F,,F,]2 | B,,2 A,,2 (3:2:2A,,2 A,, (3B,,B,,A,, | %8
 G,,2 (3:2:2G,,2 E, (3E,D,C, (3B,,A,,G,, | F,,2 G,,A,, (3B,,A,,G,, F,,B,, | %10
 F,,2 (3F,,F,,F,, F,,2 F,,2 | z2 [F,,F,]4 [F,,-F,]2 | [F,,F,]2 [F,,F,]4 [F,,-F,]2 | %13
 [F,,F,]2 [F,,F,]4 [F,,F,]2 | [_D,_D]2 [F,,F,]4 [F,,F,]2 | [E,,B,,]4 [C,_A,_C]2 =CD | %16
 [C,_A,]2 [F,B,C]4 F,,>F,, | %17
 (3:2:2[C,,C,]2 [D,,D,] (3:2:2[E,,E,]2 [F,,F,] (3:2:2[_G,,_G,]2 [_A,,_A,] (3:2:2[B,,B,]2 [C,C] | %18
 z2 [F,,F,]4 [F,,F,]2 | [F,,F,]3 [F,,F,] [C,C]2 [F,,F,]2 | %20
 [B,,,B,,]2 [B,,D,F,B,]2 z [B,,,B,,]/[B,,,B,,]/ [B,,,B,,][B,,,B,,] | %21
 z2 [F,,F,]2 [F,,F,]2 (3[B,,B,][B,,B,][B,,B,] | %22
 z [F,,F,] z [F,,F,] z [F,,F,] (3[B,,B,][B,,B,][B,,B,] | %23
 z [F,_A,C] z [F,A,C] z [F,,F,] (3[F,,F,][F,,F,][F,,F,] | [B,,B,]2 [A,,A,]2 [A,,A,]2 [G,,G,]2 | %25
 [G,,G,]2 [F,,F,]2 [B,,B,]2 (3[B,,B,][A,,A,][G,,G,] | %26
 [F,,F,]2 [F,,F,]2 (3[E,E][D,D][C,C] (3[B,,B,][A,,A,][G,,G,] | %27
 [F,,F,]2 (3[F,,F,][F,,F,][F,,F,] [F,,F,][K:treble]C (3CF z | %28
 (3BAB z2 F[K:bass][F,,F,] (3[F,,F,][F,,F,][F,,F,] | %29
 [F,,E,][F,,E,][F,,E,][F,,C,] [F,,C,][F,,C,][F,,C,][F,,B,,] | %30
 [B,,E,_A,][B,,E,A,][B,,E,A,][B,,E,A,] [B,,-E,A,]4 | [B,,E,A,]4 [B,,,B,,]4 | %32
 !arpeggio![_A,,F,]2 [A,,F,]2 [A,,F,]2 [A,,F,]2 | !arpeggio![=E,^C]2 [E,C]2 [E,C]2 [E,C]2 | %34
 !arpeggio![=E,,C,^G,]8 |[M:3/4] !arpeggio![C,=E,^G,C]4 z2 | z6 | A6 | [=EF]6 | C4- C=E- | E2 C4- | %41
 C2 C4 |[M:4/4] C,2 [B,,C,]2 [_A,,C,]2 !fermata![G,,C,]2 | [C,,_G,,A,,C,]8 | [C,,_G,,A,,=E,]8- | %45
[M:3/4] [C,,G,,A,,E,]4 [B,,,B,,]2 | %46
[M:4/4] [B,,,B,,][B,,,B,,]/[B,,,B,,]/ [B,,,B,,]/[B,,,B,,]/[B,,,B,,] [B,,,B,,][B,,,B,,] [B,,,B,,][B,,,B,,]/[B,,,B,,]/ | %47
 [B,,,B,,](3B,,,/B,,/B,,,/ [B,,,B,,]/[B,,,B,,]/[B,,,B,,] [B,,,B,,][B,,,B,,] [B,,,B,,][B,,,B,,]/[B,,,B,,]/ | %48
 [B,,,B,,](3B,,,/B,,/B,,,/ [B,,,B,,]/[B,,,B,,]/[B,,,B,,] [B,,,B,,][B,,,B,,] [B,,,B,,][B,,,B,,]/[B,,,B,,]/ | %49
 [B,,,B,,](3B,,,/B,,/B,,,/ [B,,,B,,]/[B,,,B,,]/[B,,,B,,] [B,,,B,,][B,,,B,,] [B,,,B,,][B,,,B,,]/[B,,,B,,]/ | %50
[M:3/8] [B,,,B,,][B,,,B,,][B,,,B,,] | %51
[M:6/8] [B,,,B,,][B,,,B,,][B,,,B,,] [B,,,B,,][B,,,B,,][B,,,B,,] | %52
 [B,,,B,,][B,,,B,,][B,,,B,,] [B,,,B,,][B,,,B,,][B,,,B,,] | %53
 [B,,,B,,][B,,,B,,][B,,,B,,] [B,,,B,,][B,,,B,,][B,,,B,,] | %54
 [B,,,B,,][B,,,B,,][B,,,B,,] [B,,,B,,][B,,,B,,][B,,,B,,] |[K:C] z3 _E,{D,_D,}C, z | z6 | z6 | %58
[K:treble] _B6 |[K:bass] !///![C,,F,,_B,,]3 !///![C,,F,,B,,]2 [C,,F,,B,,]- | %60
 !fermata![C,,F,,B,,]6 |][K:C][M:4/4] z8 | z8 | z8 | z8 | A,4 A,2 A,2 | A,4 A,C/A,/ A,2- | %67
[M:2/4] A,4 |[M:4/4] A,4 A,4- | A,2 A,6 | A,8 | A,8 | A,8 | A,4 A,4 | A,2 A,2 A,2 A,2 | %75
 A,2 A,2 A,2 A,2 | [A,,D,]2 [A,,C,]2 [A,,B,,]2 A,,2 | [A,,G,]2 [A,,F,]2 [A,,E,]2 [A,,D,]2 | %78
 A,,2 A,,E,, A,,2 z2 | z2 A,,E, E,A,, z E,, | E,4 E,2 F,2 | D,,2 D,,A,, D,A,, z D,, | %82
 z2 A,,2 z2 E,A,, | z2 D,A,, D,A,, z D,, | F,,2 [A,,,A,,]2 z [A,,,A,,] z2 | %85
 [A,,,A,,] z [A,,,A,,]/[A,,,A,,]/ z [A,,,A,,]2 z2 | z C,,/A,,,/ A,,,2 z [A,,,A,,] z2 | %87
 z [E,,E,] z2 z [E,,E,] z2 | z2 [A,,,A,,]2 z [C,,C,]/[A,,,A,,]/ [A,,,A,,]2 | %89
 z2 E,,C,/A,,/ A,,2 z2 | [A,,,A,,]2 z2 z A,/C/ E2- | E6 E,2 | A,4 A,2 A,2 | A,4 A,2 A,2 | A,4 A,4 | %95
 A,8 | A,8 | A,6 B,2 | D4 B,4 | [A,C]8- | [A,C]8- | [A,C]8 | A,2 B,2 E4 | G,2 A,2 D4 | A,2 B,2 E4 | %105
 E,2 ^F,2 ^C4 | B,,2 ^F,2 D2 F,2 | B,,2 ^F,2 D2 F,2 |[M:9/8] B,,2 ^F,2 A,,2 E,2 G,,- | %109
 G,, D,2 B,4 B,,2 | ^F,4 B,,2 E,,2 B,,- | B,, ^G,2 B,2 [D^F]4- | [DF]4 A,2 D2 E- | %113
 E G,2 ^F,2 B,2 D2- | D2 G,2 B,4- B,- | B, z8 |][K:F][M:6/8][K:treble] A2 z Bfe | a2 z e2 z | %118
 A2 z Bfe |[M:2/4] TA4 |[M:6/8] A,3 B,FE |[M:5/8] A2 E3 | A,3 z2 |[M:4/4][K:bass] [F,G,A,CD]8 | %124
[M:7/8] [F,G,A,CD]2 C F, G,3 |[M:9/8] [F,G,A,CD]4- [F,G,A,CD]3- [F,G,A,CD]2 | %126
[M:7/8] [F,G,A,CD]2 E2 =B,3 |[M:9/8] [F,G,A,CD]4- [F,G,A,CD]3- [F,G,A,CD]2 |[M:4/4] [F,G,A,CD]8 | %129
 [F,,D,]8 | [F,,D,]8 | [F,,D,]4 z2 [CEG]2- |[M:3/4] [CEG]6 |[M:2/4] G,4 |[M:4/4] [_E,F,G,]8 | %135
 [_G,A,]8 | [C,^F,G,A,]4 [C,E,G,A,]4 | [C,D,A,]4 [C,E,A,]4 | [F,,D,F,]4 [F,,D,F,]2 [F,,D,F,]2 | %139
 !arpeggio![_E,,B,,G,]8 | [_G,B,]8 | z2 [D,B,]6 | [A,DF]8- | [A,DF]7 D- | D8- | %145
 D3 (3D,,/E,,/D,,/ ^C,,4 | [E,,E,]6 [_E,,_E,]2- | [E,,E,]4{C,,C,} [^G,^CE]4- | [G,CE]4 z4 |] z8 | %150
 z8 | z8 | z8 | z8 | z8 | z8 |] %156
V:3
 x8 | x8 | x8 | z3/2 [DF]/ [DF]2 z [DFB][DFB][E_AB] | z3 [E_AB] (3[EAB][EAB][EAB] [FB]2 | %5
 z3 [E_AB] (3[EAB][EAB][EAB] [FB]2 | x8 | [DF]2 (([DF]2 (3:2:2[DF]) [DFB]2 (3[DFB])[DFB][DFB] | %8
 [EGB]2 (3:2:2[Be]2 [GBe] [GBe]2 [FBd]2 | [EGB]2 [Beg]2 [FBd]2 [FBd]2 | x8 | x8 | x8 | x8 | %14
 [_A_d]2 [F=A]2 [EGB]2 [CFA]F | G,2 A,B, _F4 | x8 | x8 | z2 (3[Bce][Bce][Bce] [Bce]2 (3FFF | x8 | %20
 x8 | x8 | x8 | x8 | x8 | z2 b4 f2 | (3edc b4 f2 | (3_AG_B c4 (3:2:2c2 c- | c2 c6 | x8 | x8 | x8 | %32
 x8 | x8 | x8 |[M:3/4] c6 | c4 c2 | _c6 | [=EF]4 c_d- | d=e G_A c2 | _AG A=E AG | _A G2 =E AG | %42
[M:4/4] x8 | x8 | x8 |[M:3/4] x6 |[M:4/4] x8 | x8 | x8 | x8 |[M:3/8] x _D/4C/4B,/4C/4D | %51
[M:6/8] [FA]/[=EA]/ [FB]2- [FB]3 | x3 F,3 | [FBd]/[=EAc]/ [FBd]2- [FBd]3 | %54
 [B_df][Bdf]/[Bdf]/[Bdf]/[Bdf]/ [Bdf][Bdf][cfb] |[K:C] x6 | x6 | x6 | x6 | x6 | x6 |] %61
[K:C][M:4/4] x8 | x8 | x8 | x8 | x8 | x8 |[M:2/4] x4 |[M:4/4] x8 | x8 | x8 | x8 | x8 | x8 | x8 | %75
 x8 | x8 | x8 |[K:bass] x8 | D2 E6 | x8 | x8 | x8 | x6[K:treble] x2 | [cef]4 [Bce]4 | x8 | x8 | %87
 x8 | [ea]c'/a/ a2 [fa]3 f/e/ | E4 [CF]2 EF/E/ | x8 | x8 | x8 | x8 | x8 | x8 | D4 E4 | x8 | x8 | %99
 x8 | B4 G4 | D2 E6 | x8 | x8 | x8 | x8 | x8 | x8 |[M:9/8] [D^F]4 [EA]4 [DG]- | [DG]7 [D^F]2- | %110
 [DF]6 z2 z | z4 z B4- | B4 d4 c- | c3 z4 z2 | x9 | x9 |][K:F][M:6/8] x6 | x6 | x6 |[M:2/4] Tc4 | %120
[M:6/8] x6 |[M:5/8] x5 | x5 |[M:4/4] x8 |[M:7/8] x7 |[M:9/8] x9 |[M:7/8] x7 |[M:9/8] x9 | %128
[M:4/4] x8 | G,8 | G,8 | F,4 x4 |[M:3/4] z [G=B^d]- [GBd]4 |[M:2/4] x4 |[M:4/4] x8 | x8 | x8 | x8 | %138
 x8 | [A,C]4 [B,D]4 | x8 | x8 | x8 | [df] [df]2 [^ce]- [ce]4 | x8 | x3[K:bass] x5 |[K:treble] x8 | %147
 x8 | x8 |] x8 | x8 | x8 | x8 | x8 | x8 | x8 |] %156
V:4
 x8 | x8 | x8 | x8 | x8 | x8 | x8 | x8 | x8 | x8 | x8 | x8 | x8 | x8 | x8 | x8 | x8 | x8 | x8 | %19
 x8 | x8 | x8 | x8 | x8 | x8 | x8 | x8 | x5[K:treble] x3 | x5[K:bass] x3 | x8 | x8 | x8 | _D,,8 | %33
 A,,8 | x8 |[M:3/4] x6 | x6 | x6 | z6 | x6 | x6 | x6 |[M:4/4] x8 | x8 | x8 |[M:3/4] x6 | %46
[M:4/4] x8 | x8 | x8 | x8 |[M:3/8] x3 |[M:6/8] x6 | x6 | x6 | x6 |[K:C] x6 | x6 | x6 | %58
[K:treble] x6 |[K:bass] x6 | x6 |][K:C][M:4/4] x8 | x8 | x8 | x8 | x8 | x8 |[M:2/4] E,G,/E,/ E,2 | %68
[M:4/4] C, z4 z2 z | z2 A,,C,/A,,/ A,,2 x2 | z2 A,,C,/A,,/ A,,2 A,,C,/A,,/ | %71
 A,,C,/A,,/ A,,2 z A,, z2 | z D,/B,,/ B,,2 z E,/D,/ D,2 | z G,/F,/ F,2 z F,/E,/ E,2 | x8 | x8 | %76
 x8 | x8 | E,4 x4 | x8 | z2 A,,E,, A,,2 A,,2 | x8 | x8 | x8 | x8 | x8 | x8 | x8 | x8 | x8 | x8 | %91
 x8 | A,, z z2 x4 | x8 | x8 | x8 | x8 | x8 | x8 | x8 | x8 | x8 | x8 | x8 | x8 | x8 | x8 | x8 | %108
[M:9/8] x9 | x9 | x9 | x9 | x9 | x9 | x9 | x9 |][K:F][M:6/8][K:treble] x6 | x6 | x6 |[M:2/4] x4 | %120
[M:6/8] x6 |[M:5/8] x5 | x5 |[M:4/4][K:bass] x8 |[M:7/8] x7 |[M:9/8] x9 |[M:7/8] x7 |[M:9/8] x9 | %128
[M:4/4] z2 G,4 A,2 | x8 | x8 | x8 |[M:3/4] x6 |[M:2/4] x4 |[M:4/4] B,,4 B,,4 | B,,6 B,,2 | x8 | %137
 x8 | x8 | x8 | z4 _D,4 | _G,,8 | x8 | x8 | x8 | x8 | x8 | x8 | x8 |] x8 | x8 | x8 | x8 | x8 | x8 | %155
 x8 |] %156

